images/categories/category-2.svg

<svg width="160" height="160" viewBox="0 0 160 160" fill="none" xmlns="http://www.w3.org/2000/svg"><path d="M119.821 47.011H40.33a3.188 3.188 0 0 0-3.188 3.188v46.413a3.187 3.187 0 0 0 3.188 3.189h79.492a3.188 3.188 0 0 0 3.189-3.189V50.199a3.189 3.189 0 0 0-3.19-3.188ZM45.392 80.236h-.226a3.19 3.19 0 0 1-3.189-3.189v-7.283a3.188 3.188 0 0 1 3.189-3.188h.226v13.66Zm61.231 15.172H50.341V51.402h56.282v44.006Zm8.777-17.856a4.146 4.146 0 0 1-4.146-4.147 4.146 4.146 0 1 1 4.146 4.147ZM91.654 43H68.497v2.758h23.157V43ZM83.608 107.861v-2.973h8.046v-2.758H68.498v2.758h8.045v35.246a6.068 6.068 0 0 0-3.635 5.559V160h14.335v-14.307a6.062 6.062 0 0 0-3.636-5.557v-27.99h4.796l5.051 1.213v-6.711l-5.051 1.213h-4.795Z" fill="#363636"/></svg>

<svg width="160" height="160" viewBox="0 0 160 160" fill="none" xmlns="http://www.w3.org/2000/svg">
<path d="M119.821 47.011H40.33C38.569 47.011 37.142 48.438 37.142 50.199V96.612C37.142 98.375 38.569 99.801 40.33 99.801H119.822C121.584 99.801 123.011 98.374 123.011 96.612V50.199C123.011 48.438 121.583 47.011 119.821 47.011ZM45.392 80.236H45.166C43.404 80.236 41.977 78.807 41.977 77.047V69.764C41.977 68.003 43.404 66.576 45.166 66.576H45.392V80.236ZM106.623 95.408H50.341V51.402H106.623V95.408ZM115.4 77.552C113.111 77.552 111.254 75.697 111.254 73.405C111.254 71.113 113.11 69.258 115.4 69.258C117.691 69.258 119.548 71.113 119.548 73.405C119.548 75.697 117.691 77.552 115.4 77.552Z" fill="#363636"/>
<path d="M91.654 43H68.497V45.758H91.654V43Z" fill="#363636"/>
<path d="M83.608 107.861V104.888H91.654V102.13H68.498V104.888H76.543V140.134C74.404 141.072 72.908 143.206 72.908 145.693V160H87.243V145.693C87.243 143.207 85.748 141.072 83.607 140.136V112.146H88.403L93.454 113.359V106.648L88.403 107.861H83.608Z" fill="#363636"/>
</svg>
